!!!OTL: 75. Gefangen und geschlagen (2. Sept- 1870.) / Mel. Wir Preussen ziehen in das Feld.
!!!COM: Volksweise
!!!ODT: 1814
!!!ARE: Europa, Mitteleuropa, Deutschland
!!!SCT: B0075
!!!TXL: @@DE
!!!YEM: Copyright 1995, estate of Helmut Schaffrath.
**kern	**text
*ICvox	*
*Ivox	*
*M2/4	*
*clefG2	*
*k[f#]	*
*G:	*
!LO:TX:a:t=Marֵ¿chtakt.	!
{8g	Bei
=1	=1
8d	Se-
8d	-dan
8d	war
8g	die
=2	=2
8e	letʒ-
8e	-te
8e}	Schlacht,
{8a	Hur-
=3	=3
8f#	-rah,
8d	hur-
8e	-rah,
8f#	hur-
=4	=4
4g	-rah!
8r}	.
{8g	die
=5	=5
8d	hat
8d	Na-
8d	-po-
8g	-leon
=6	=6
8e	mit-
8e	-ge-
8e}	-macht.
{8a	Hur-
=7	=7
8f#	-rah,
8d	hur-
8e	-rah,
8f#	hur-
=8	=8
4g	-rah!
8r}	.
{8g	Na-
=9	=9
8.a	-po-
16a	-leon
16gL	war
16f#J	.
16eL	ein
16dJ	.
=10	=10
8g	ſchlech-
8a	-ter
8b}	Held,
{8g	ein
=11	=11
8.a	ſchlim-
16a	-mer
16gL	Vo-
16f#J	.
16eL	-gel
16dJ	.
=12	=12
8g	in
8a	der
8b/}	Welt.
{8d	Er
=13	=13
8.g	iſt
16a	ge-
16b/L	-fan-
16aJ	.
16gL	-gen,
16f#J	er
=14	=14
8.e	iſt
16a	ge-
16ccL	-fan-
16bJ	.
16a}	-gen,
{16a	er
=15	=15
8.b/	iſt
16b/	ge-
16a	-fan-
16a	-gen
16f#	mit
16f#	Hur-
=16	=16
4g	-rah!
8r}	.
{8d	Er
=17	=17
8.g	iſt
16a	ge-
16b/L	-fan-
16aJ	.
16g	-gen,
16f#	er
=18	=18
8.e	iſt
16a	ge-
16ccL	-fan-
16bJ	.
16a}	-gen,
{16a	er
=19	=19
8.b/	iſt
16b/	ge-
16a	-fan-
16a	-gen
16f#	mit
16f#	Hur-
=20	=20
4g	-rah!
8r}	.
==	==
!!!AGN: Kriegs -, Sieges -, Soldaten - Lied
!!!GTL: Kriegs- und Siegeslieder
!!!ONB: ESAC (Essen Associative Code) Database: BOEHME
!!!AMT: simple duple
!!!AIN: vox
!!!EED: Helmut Schaffrath
!!!EEV: 1.0
!!Text: Wilhelm Eichholz-Sengelmann
!!!URL-scan: https://archive.org/details/BoehmeVtLieder1895/page/n87/mode/2up
!!!ENC: Anna Maria Matuszewska
!!!EEV: 2024/14/06
*-	*-
